src/components/00-materials/images-raw/Financial Loss 2.svg

<svg width="96" height="96" viewBox="0 0 96 96" fill="none" xmlns="http://www.w3.org/2000/svg">
<path d="M16.41 68.1298L16.43 15.7998M79.07 15.7998V56.5198V15.7998Z" stroke="#00008F" stroke-width="2" stroke-linecap="round" stroke-linejoin="round"/>
<path d="M82.6 10.2898H13.41C12.0293 10.2898 10.91 11.4091 10.91 12.7898V13.2998C10.91 14.6805 12.0293 15.7998 13.41 15.7998H82.6C83.9807 15.7998 85.1 14.6805 85.1 13.2998V12.7898C85.1 11.4091 83.9807 10.2898 82.6 10.2898Z" stroke="#00008F" stroke-width="2" stroke-linecap="round" stroke-linejoin="round"/>
<path d="M43.41 31.7699L55.02 43.0099L61.09 37.4899L75.11 50.9299M68.35 74.0699H13.67C13.3076 74.0699 12.9487 73.9985 12.6138 73.8598C12.2789 73.7211 11.9747 73.5178 11.7184 73.2615C11.4621 73.0052 11.2588 72.7009 11.1201 72.3661C10.9814 72.0312 10.91 71.6723 10.91 71.3099C10.91 70.5779 11.2008 69.8759 11.7184 69.3583C12.236 68.8407 12.938 68.5499 13.67 68.5499H64.36L68.35 74.0699ZM47.75 10.2899V5.87988V10.2899ZM47.75 90.1199V74.0699V90.1199ZM23.45 90.1199L46.65 74.0699L23.45 90.1199ZM72.05 90.1299L48.85 74.0699L72.05 90.1299Z" stroke="#00008F" stroke-width="2" stroke-linecap="round" stroke-linejoin="round"/>
<path d="M67.38 50.93H75.11V43.21" stroke="#00008F" stroke-width="2" stroke-linecap="round" stroke-linejoin="round"/>
<path d="M74.96 76.5699C80.4994 76.5699 84.99 71.9942 84.99 66.3499C84.99 60.7055 80.4994 56.1299 74.96 56.1299C69.4206 56.1299 64.93 60.7055 64.93 66.3499C64.93 71.9942 69.4206 76.5699 74.96 76.5699Z" stroke="#00008F" stroke-width="2" stroke-linecap="round" stroke-linejoin="round"/>
<path d="M69.55 64.7698H74.96M69.55 67.9198H74.96M78 62.0698C77.6642 61.6913 77.2535 61.3866 76.7939 61.1749C76.3344 60.9632 75.8359 60.8491 75.33 60.8398C72.97 60.8398 71.06 63.3098 71.06 66.3498C71.06 69.3898 72.97 71.8498 75.33 71.8498C75.8348 71.8399 76.3323 71.7266 76.7915 71.5167C77.2508 71.3069 77.6621 71.005 78 70.6298M25.46 59.0798H34.56M27.38 68.1798V59.0798M32.63 68.1798V59.0798M30.01 19.5298V22.3298M20.91 27.1398H39.11V68.5398H20.91V27.1398ZM24.06 22.6798H35.96V27.1298H24.06V22.6798Z" stroke="#00008F" stroke-width="2" stroke-linecap="round" stroke-linejoin="round"/>
<path d="M25.35 33.0798C26.1232 33.0798 26.75 32.453 26.75 31.6798C26.75 30.9066 26.1232 30.2798 25.35 30.2798C24.5768 30.2798 23.95 30.9066 23.95 31.6798C23.95 32.453 24.5768 33.0798 25.35 33.0798Z" stroke="#00008F" stroke-width="2" stroke-linecap="round" stroke-linejoin="round"/>
<path d="M30.07 33.0798C30.8432 33.0798 31.47 32.453 31.47 31.6798C31.47 30.9066 30.8432 30.2798 30.07 30.2798C29.2968 30.2798 28.67 30.9066 28.67 31.6798C28.67 32.453 29.2968 33.0798 30.07 33.0798Z" stroke="#00008F" stroke-width="2" stroke-linecap="round" stroke-linejoin="round"/>
<path d="M34.8 33.0798C35.5732 33.0798 36.2 32.453 36.2 31.6798C36.2 30.9066 35.5732 30.2798 34.8 30.2798C34.0268 30.2798 33.4 30.9066 33.4 31.6798C33.4 32.453 34.0268 33.0798 34.8 33.0798Z" stroke="#00008F" stroke-width="2" stroke-linecap="round" stroke-linejoin="round"/>
<path d="M25.35 39.9699C26.1232 39.9699 26.75 39.3431 26.75 38.5699C26.75 37.7967 26.1232 37.1699 25.35 37.1699C24.5768 37.1699 23.95 37.7967 23.95 38.5699C23.95 39.3431 24.5768 39.9699 25.35 39.9699Z" stroke="#00008F" stroke-width="2" stroke-linecap="round" stroke-linejoin="round"/>
<path d="M30.07 39.9699C30.8432 39.9699 31.47 39.3431 31.47 38.5699C31.47 37.7967 30.8432 37.1699 30.07 37.1699C29.2968 37.1699 28.67 37.7967 28.67 38.5699C28.67 39.3431 29.2968 39.9699 30.07 39.9699Z" stroke="#00008F" stroke-width="2" stroke-linecap="round" stroke-linejoin="round"/>
<path d="M34.8 39.9699C35.5732 39.9699 36.2 39.3431 36.2 38.5699C36.2 37.7967 35.5732 37.1699 34.8 37.1699C34.0268 37.1699 33.4 37.7967 33.4 38.5699C33.4 39.3431 34.0268 39.9699 34.8 39.9699Z" stroke="#00008F" stroke-width="2" stroke-linecap="round" stroke-linejoin="round"/>
<path d="M25.35 46.8498C26.1232 46.8498 26.75 46.223 26.75 45.4498C26.75 44.6766 26.1232 44.0498 25.35 44.0498C24.5768 44.0498 23.95 44.6766 23.95 45.4498C23.95 46.223 24.5768 46.8498 25.35 46.8498Z" stroke="#00008F" stroke-width="2" stroke-linecap="round" stroke-linejoin="round"/>
<path d="M30.07 46.8498C30.8432 46.8498 31.47 46.223 31.47 45.4498C31.47 44.6766 30.8432 44.0498 30.07 44.0498C29.2968 44.0498 28.67 44.6766 28.67 45.4498C28.67 46.223 29.2968 46.8498 30.07 46.8498Z" stroke="#00008F" stroke-width="2" stroke-linecap="round" stroke-linejoin="round"/>
<path d="M34.8 46.8498C35.5732 46.8498 36.2 46.223 36.2 45.4498C36.2 44.6766 35.5732 44.0498 34.8 44.0498C34.0268 44.0498 33.4 44.6766 33.4 45.4498C33.4 46.223 34.0268 46.8498 34.8 46.8498Z" stroke="#00008F" stroke-width="2" stroke-linecap="round" stroke-linejoin="round"/>
<path d="M25.35 53.7299C26.1232 53.7299 26.75 53.1031 26.75 52.3299C26.75 51.5567 26.1232 50.9299 25.35 50.9299C24.5768 50.9299 23.95 51.5567 23.95 52.3299C23.95 53.1031 24.5768 53.7299 25.35 53.7299Z" stroke="#00008F" stroke-width="2" stroke-linecap="round" stroke-linejoin="round"/>
<path d="M30.07 53.7299C30.8432 53.7299 31.47 53.1031 31.47 52.3299C31.47 51.5567 30.8432 50.9299 30.07 50.9299C29.2968 50.9299 28.67 51.5567 28.67 52.3299C28.67 53.1031 29.2968 53.7299 30.07 53.7299Z" stroke="#00008F" stroke-width="2" stroke-linecap="round" stroke-linejoin="round"/>
<path d="M34.8 53.7299C35.5732 53.7299 36.2 53.1031 36.2 52.3299C36.2 51.5567 35.5732 50.9299 34.8 50.9299C34.0268 50.9299 33.4 51.5567 33.4 52.3299C33.4 53.1031 34.0268 53.7299 34.8 53.7299Z" stroke="#00008F" stroke-width="2" stroke-linecap="round" stroke-linejoin="round"/>
</svg>

<svg width="96" height="96" viewBox="0 0 96 96" fill="none" xmlns="http://www.w3.org/2000/svg"><path d="M16.41 68.13l.02-52.33m62.64 0v40.72V15.8zM82.6 10.29H13.41a2.5 2.5 0 00-2.5 2.5v.51a2.5 2.5 0 002.5 2.5H82.6a2.5 2.5 0 002.5-2.5v-.51a2.5 2.5 0 00-2.5-2.5zM43.41 31.77l11.61 11.24 6.07-5.52 14.02 13.44m-6.76 23.14H13.67a2.76 2.76 0 010-5.52h50.69l3.99 5.52zm-20.6-63.78V5.88v4.41zm0 79.83V74.07v16.05zm-24.3 0l23.2-16.05-23.2 16.05zm48.6.01l-23.2-16.06 23.2 16.06z" stroke="#00008F" stroke-width="2" stroke-linecap="round" stroke-linejoin="round"/><path d="M67.38 50.93h7.73v-7.72M74.96 76.57c5.54 0 10.03-4.576 10.03-10.22 0-5.644-4.49-10.22-10.03-10.22-5.54 0-10.03 4.575-10.03 10.22 0 5.644 4.49 10.22 10.03 10.22z" stroke="#00008F" stroke-width="2" stroke-linecap="round" stroke-linejoin="round"/><path d="M69.55 64.77h5.41m-5.41 3.15h5.41M78 62.07a3.658 3.658 0 00-2.67-1.23c-2.36 0-4.27 2.47-4.27 5.51 0 3.04 1.91 5.5 4.27 5.5A3.69 3.69 0 0078 70.63M25.46 59.08h9.1m-7.18 9.1v-9.1m5.25 9.1v-9.1m-2.62-39.55v2.8m-9.1 4.81h18.2v41.4h-18.2v-41.4zm3.15-4.46h11.9v4.45h-11.9v-4.45z" stroke="#00008F" stroke-width="2" stroke-linecap="round" stroke-linejoin="round"/><path d="M25.35 33.08a1.4 1.4 0 100-2.8 1.4 1.4 0 000 2.8zM30.07 33.08a1.4 1.4 0 100-2.8 1.4 1.4 0 000 2.8zM34.8 33.08a1.4 1.4 0 100-2.8 1.4 1.4 0 000 2.8zM25.35 39.97a1.4 1.4 0 100-2.8 1.4 1.4 0 000 2.8zM30.07 39.97a1.4 1.4 0 100-2.8 1.4 1.4 0 000 2.8zM34.8 39.97a1.4 1.4 0 100-2.8 1.4 1.4 0 000 2.8zM25.35 46.85a1.4 1.4 0 100-2.8 1.4 1.4 0 000 2.8zM30.07 46.85a1.4 1.4 0 100-2.8 1.4 1.4 0 000 2.8zM34.8 46.85a1.4 1.4 0 100-2.8 1.4 1.4 0 000 2.8zM25.35 53.73a1.4 1.4 0 100-2.8 1.4 1.4 0 000 2.8zM30.07 53.73a1.4 1.4 0 100-2.8 1.4 1.4 0 000 2.8zM34.8 53.73a1.4 1.4 0 100-2.8 1.4 1.4 0 000 2.8z" stroke="#00008F" stroke-width="2" stroke-linecap="round" stroke-linejoin="round"/></svg>
